X:3854
T:Danza de San Joaqun
R:Danza
C:Tradicional
S:Msica Tradicional Asturiana, (C) Tello & Tito. Asturies, 2001.
S:http://pagina.de/MusTradAst <telloytito@asturies.org>
O:Llanes
A:Asturies
B:La Cancin Asturiana, Fernando Noceda
Z:La Cancin Asturiana, F.N.
M:3/4
L:1/4
Q:1/4=200
K:C
|G2 A|B3|ccc|c2 B|G2 A|B3|ccB|A2 G|c2 B|A3|BcB|A2 G-|G3|
